/* XPM */
static const char* md_editor_icon[] = {
"32 32 5 1",
"  c None",
". c #1A5276",
"# c #2980B9",
"@ c #FFFFFF",
"% c #F4D03F",
"                                ",
"                                ",
"   .................            ",
"   .###############.            ",
"   .##@###########@#.           ",
"   .##@@##########@@#.          ",
"   .##.@@########.@@.#.         ",
"   .##..@@######..@@.#.         ",
"   .##...@@####...@@.#.         ",
"   .##....@@##....@@.#.         ",
"   .##.....@@.....@@.#.         ",
"   .##....@@@.....@@.#.         ",
"   .##...@@@@@....@@.#.         ",
"   .##..@@@@@@@...@@.#.         ",
"   .##.@@@@@@@@@..@@.#.         ",
"   .##.@@@.@@@@@..@@.#.         ",
"   .##.@@..@@@@@..@@.#.         ",
"   .##.@@...@@@@@.@@.#.         ",
"   .##.@@....@@@@@@@.#.         ",
"   .##.@@.....@@@@@@.#.         ",
"   .##.@@....@@@@@@@.#.         ",
"   .##.@@...@@@@@@@..#.         ",
"   .##.@@..@@@@@@....#.         ",
"   .##.@@.@@@@@......#.         ",
"   .##.@@@@@@........#.         ",
"   .##.@@@@@.........#.         ",
"   .##..@@...........#.         ",
"   .##................#.         ",
"   .#################.          ",
"   ...................           ",
"                                ",
"                                "
};
